public/formular-icons/english/upper-q.svg

<svg style="vertical-align:-.439ex" xmlns="http://www.w3.org/2000/svg" width="1.79ex" height="2.032ex" viewBox="0 -704 791 898" xmlns:xlink="http://www.w3.org/1999/xlink"><defs><path id="a" d="M399-80q0 33 1 50t2 19v4l-15-4q-46-11-84-11-95 0-165 57T51 201q-1 8-1 43 0 102 48 194t129 163q124 103 249 103 38 0 48-1 97-14 156-86t60-182q0-180-148-328-63-60-131-91l-17-8V3q0-1 5-27t21-42 46-16q35 0 67 22t42 57q6 14 13 14 9 0 11-9 0-8-10-36t-28-66-54-65-76-29q-82 0-82 107v7Zm237 548q0 55-15 96t-41 61-50 30-53 10q-48 0-98-25-102-49-164-176t-62-248q0-106 54-157 24-21 29-21v8q0 40 33 74t78 35q25 0 43-11t27-30 12-32 6-27l13 9q64 44 109 121t62 149 17 134ZM314 18q48 0 90 21l-1 10q-4 55-37 66-12 2-19 2h-6q-3 0-4 1-20 0-41-20t-22-46q0-34 40-34Z"/></defs><g stroke="currentColor" fill="currentColor" stroke-width="0"><use data-c="1D444" xlink:href="#a" transform="scale(1 -1)"/></g></svg>

<svg style="vertical-align: -0.439ex" xmlns="http://www.w3.org/2000/svg" width="1.79ex" height="2.032ex" role="img" focusable="false" viewBox="0 -704 791 898" xmlns:xlink="http://www.w3.org/1999/xlink"><defs><path id="MJX-64-TEX-I-1D444" d="M399 -80Q399 -47 400 -30T402 -11V-7L387 -11Q341 -22 303 -22Q208 -22 138 35T51 201Q50 209 50 244Q50 346 98 438T227 601Q351 704 476 704Q514 704 524 703Q621 689 680 617T740 435Q740 255 592 107Q529 47 461 16L444 8V3Q444 2 449 -24T470 -66T516 -82Q551 -82 583 -60T625 -3Q631 11 638 11Q647 11 649 2Q649 -6 639 -34T611 -100T557 -165T481 -194Q399 -194 399 -87V-80ZM636 468Q636 523 621 564T580 625T530 655T477 665Q429 665 379 640Q277 591 215 464T153 216Q153 110 207 59Q231 38 236 38V46Q236 86 269 120T347 155Q372 155 390 144T417 114T429 82T435 55L448 64Q512 108 557 185T619 334T636 468ZM314 18Q362 18 404 39L403 49Q399 104 366 115Q354 117 347 117Q344 117 341 117T337 118Q317 118 296 98T274 52Q274 18 314 18Z"></path></defs><g stroke="currentColor" fill="currentColor" stroke-width="0" transform="scale(1,-1)"><g data-mml-node="math"><g data-mml-node="mi"><use data-c="1D444" xlink:href="#MJX-64-TEX-I-1D444"></use></g></g></g></svg>
